!!!SOCIAL_FUNCTION:	cremation legend songs
!!!PDT:	1932
!!!OTL: No_8_The_Wonder-boy_on_the_Mountain.krn
!!!REG: Southwest
!!!LANG: Non-Tone
!!!LING_GROUP: Yuman-Cochimi
**kern	**kern
*staff2	*staff1
=1-	=1-
*clefF4	*clefF4
*k[b-]	*k[b-]
*M6/8	*M6/8
2.r	8F\L
.	8F\
.	8G\J
.	8G\L
.	8A\
.	8G\J
=2	=2
*M5/8	*M5/8
8GG/	8G\L
8r	8F\
8GG/	8G\
8r	8G\
8r	8G\J
=3	=3
8GG/	8F\L
8r	8G\
8GG/	8F\
8r	8F\
8r	8F\J
=4	=4
*M6/8	*M6/8
8GG/	8G\L
8r	8G\
8r	8F\J
8GG/	8F\L
8r	8F\
8r	8F\J
=5	=5
*M3/8	*M3/8
4r	4r
8r	8D\
=6	=6
*M6/8	*M6/8
4r	8F\L
.	8G\
8r	8F\J
4r	8G\L
.	8A\
8GG/	8G\J
=7	=7
*M5/8	*M5/8
8r	8F\L
8r	8F\
8GG/	8G\
8r	8G\
8r	8F\J
=8	=8
8GG/	8F\L
8r	8G\
8GG/	8F\
8r	8D\
8r	8D\J
=9	=9
*M6/8	*M6/8
8GG/	8F\L
8r	8F\
8r	8F\J
8GG/	8D\L
8r	8F\
8GG/	8F\J
=10	=10
*M4/8	*M4/8
8r	8F\
8GG/	8F\
8r	8r
8r	8D\
=11!|:	=11!|:
*M6/8	*M6/8
8GG/	8F\L
8r	8F\
8r	8F\J
8GG/	8D\L
8r	8F\
8r	8F\J
=12	=12
*M4/8	*M4/8
8r	8F\
8GG/	8F\
8r	8r
8r	8F\
=13	=13
*M6/8	*M6/8
8GG/	8F\L
8r	8F\
8r	8G\J
8GG/	8G\L
8r	8A\
8GG/	8G\J
=14	=14
*M4/8	*M4/8
8r	8G\
8r	8F\
8GG/	8G\
8r	8G\
=15	=15
*M6/8	*M6/8
8GG/	8F\L
8r	8F\
8r	8G\J
8GG/	8G\
8r	8r
8r	8D\
=16	=16
8GG/	8F\L
8r	8F\
8GG/	8F\J
8r	8G\L
8r	8A\
8GG/	8G\J
=17	=17
*M5/8	*M5/8
8r	8F\L
8r	8F\
8GG/	8G\
8r	8A\
8GG/	8G\J
=18	=18
*M6/8	*M6/8
8r	8G\L
8r	8A\
8GG/	8G\J
8r	8D\
8r	8r
8r	8D\
=19	=19
8GG/	8F\L
8r	8G\
8r	8F\J
8GG/	8G\L
8r	8A\
8GG/	8G\J
=20	=20
*M5/8	*M5/8
8r	8F\L
8r	8F\
8GG/	8G\
8r	8A\
8GG/	8G\J
=21	=21
8r	8F\L
8r	8G\
8GG/	8F\
8r	8D\
8GG/	8D\J
=22	=22
8r	8F\L
8r	8F\
8GG/	8F\J
8r	8r
8r	8D\
=23	=23
8GG/	8F\L
8r	8F\
8GG/	8F\
8r	8D\
8r	8F\J
=24	=24
*M6/8	*M6/8
8GG/	8F\L
8r	8F\
8GG/	8F\J
8r	8D\L
8r	8F\
8GG/	8F\J
=25	=25
=	=
*M4/8	*M4/8
8r	8F\
8GG/	8F\
8r	8r
8r	8F\
=26:|!	=26:|!
8r	8F\
8GG/	8F\
4r	4r
==	==
*-	*-
